libs/ui/packages/crypto-icons/src/svg/WAX.svg

<svg width="24" height="24" viewBox="0 0 24 24" fill="none">
<path fill-rule="evenodd" clip-rule="evenodd" d="M21 13.8465H19.227L17.9692 12.7695L16.716 13.842H15.2175L14.5012 12.972H12.0322L12.657 12.2003H13.8713L12.9465 11.0692L9.71775 15H8.22L9.1545 13.8585H7.59375L6.75 11.493L5.913 13.8405H4.32975L3 10.1558H4.215L5.109 12.6652L6 10.167H7.5L8.38875 12.66L9.27675 10.1663H10.4955L9.1545 13.8585L9.453 13.494L12.192 10.1602H13.6995L15.9788 12.9412L17.0753 11.9985L13.605 9H15.3862L21 13.8465ZM19.2413 11.6175L18.405 10.9005L19.2397 10.1895L20.9272 10.191L19.2413 11.6175Z" fill="#F89022"/>
</svg>

<svg width="24" height="24" viewBox="0 0 24 24" fill="none"><path fill="#f89022" fill-rule="evenodd" d="M21 13.847h-1.773l-1.258-1.077-1.253 1.072h-1.499l-.716-.87h-2.469l.625-.772h1.214l-.925-1.13L9.719 15H8.22l.934-1.142h-1.56l-.844-2.365-.837 2.348H4.33L3 10.156h1.215l.894 2.51.891-2.5h1.5l.889 2.493.888-2.494h1.219l-1.341 3.692.298-.364 2.739-3.334H13.7l2.279 2.781 1.096-.943L13.605 9h1.781zm-1.759-2.23-.836-.717.835-.71 1.687.001z" clip-rule="evenodd"/></svg>
